X: 2091
T: The Road To Ballisadare
B: nick
B: to learn
M:4/4
Q: 1/4=100
K:Dmajor
V:1 
|:F>G|A2 A>B A>GF>G|A>df>d A>GF>G|(3AGA B>F A>FD>F|E>DE>F E2 F>G|
 A2 A>B A>GF>G|A>df>d A>GF>G|A>ce>f g>ec>e|(3ded c>e d2:|
 |:c>d|e2 e>f g>ec>e|d>cd>e f>dB>d|g2 (3fgf (3efe (3 ded|(3cdc (3BcB A>GF>G|
 A2 A>B A>GF>G|A>df>d A>GF>G|A>ce>f g>ec>e|(3ded c>e d2:|
% abcbook-tune_id 63455f87a17909b495cf00be


% abcbook-boost 0
% abcbook-tablature 
% abcbook-transpose 
% abcbook-lastupdated 1666004481551
% abcbook-soundfonts 
% abcbook-repeats 3


